// Metal True Peak Limiter (DSP Core v2)
// Threshold-based limiter with makeup gain, peak hold, dual-window auto-release

desc:Metal True Peak Limiter (DSP Core v2)

slider1:-3<-24,0,0.1>Threshold (dB)
slider2:-0.3<-14,0,0.1>Ceiling (dB)
slider3:2<0,10,0.1>Lookahead (ms)
slider4:1<1,4,1{1x,2x,4x,8x}>Oversampling
slider5:25<0,100,1>Inflate %
slider6:0<0,1,1{Transparent,Color}>Inflate Mode
slider7:50<10,500,1>Base Release (ms)
slider8:0.5<0.01,5,0.01>Attack (ms)
slider9:100<20,250,1>Sidechain HPF (Hz)

in_pin:L Input
in_pin:R Input
out_pin:L Output
out_pin:R Output

options:gfx_clear=1

@init
  ext_nodenorm = 1;
  EPS = 0.000000000000000000000000000001;
  db_scale = 20 / log(10);

  // Memory pool
  mem_pos = 0;
  delay_L = mem_pos; mem_pos += 480000;
  delay_R = mem_pos; mem_pos += 480000;
  gr_delay = mem_pos; mem_pos += 480000;
  hbf_states = mem_pos; mem_pos += 400;

  // Half-band FIR coefficients (23-tap, odd-symmetric, DC gain = 1.0)
  c0 = 0.500000;
  c1 = 0.316747;
  c3 = -0.096726; c5 = 0.045437; c7 = -0.024227;
  c9 = 0.013725; c11 = -0.007994; c13 = 0.004705;
  c15 = -0.002737; c17 = 0.001533; c19 = -0.000788;
  c21 = 0.000325;

  delay_write_pos = 0;

  // Initialize GR delay buffer to unity gain
  i = 0; loop(480000, gr_delay[i] = 1.0; i += 1; );

  hpf_state_L = 0; hpf_state_R = 0;
  hpf_prev_L = 0; hpf_prev_R = 0;

  fast_rms = 0; slow_rms = 0;
  hold_timer = 0;

  smooth_gr = 1.0;
  target_gr = 1.0;

  prev_os = -1;
  prev_lookahead = -1;
  hbf_comp = 1;
  pre_hbf_L = 0;
  pre_hbf_R = 0;


// ============================================================================
// UTILITY
// ============================================================================

function db2amp(db) ( exp(db * log(10) / 20) );
function amp2db(amp) ( db_scale * log(max(amp, EPS)) );


// ============================================================================
// HALF-BAND FILTER (23-tap, unity DC gain)
// Shift state, write new sample, return filtered output
// ============================================================================

function process_hbf(input, state_ptr)
  local(i)
(
  i = 22;
  loop(22,
    state_ptr[i] = state_ptr[i - 1];
    i -= 1;
  );
  state_ptr[0] = input;

  state_ptr[11] * c0 +
  (state_ptr[10] + state_ptr[12]) * c1 +
  (state_ptr[9] + state_ptr[13]) * c3 +
  (state_ptr[8] + state_ptr[14]) * c5 +
  (state_ptr[7] + state_ptr[15]) * c7 +
  (state_ptr[6] + state_ptr[16]) * c9 +
  (state_ptr[5] + state_ptr[17]) * c11 +
  (state_ptr[4] + state_ptr[18]) * c13 +
  (state_ptr[3] + state_ptr[19]) * c15 +
  (state_ptr[2] + state_ptr[20]) * c17 +
  (state_ptr[1] + state_ptr[21]) * c19 +
  (state_ptr[0] + state_ptr[22]) * c21
);


// ============================================================================
// HARMONIC INFLATION (Oxford Inflator-style)
// ============================================================================

function inflate(x, amount, mode)
  local(a2, p1)
(
  mode == 0 ? (
    // Transparent: symmetric polynomial
    x * (1 + amount * (1 - x * x));
  ) : (
    // Color: asymmetric even harmonics, DC-corrected at x=0
    a2 = amount * amount;
    p1 = x + amount * 0.2;
    (p1 * (1 + amount * (1 - p1 * p1))) - amount * 0.2 - 0.2 * a2 * (1 - 0.04 * a2);
  );
);


// ============================================================================
// @SLIDER
// ============================================================================

@slider
  // Reset all stateful variables to prevent stale-coefficient accumulation
  // (critical for first @slider call when srate may be 0)
  hpf_state_L = 0; hpf_state_R = 0;
  hpf_prev_L = 0; hpf_prev_R = 0;
  fast_rms = 0; slow_rms = 0;
  hold_timer = 0;
  target_gr = 1.0;
  smooth_gr = 1.0;

  // Threshold & ceiling
  thresh_amp = db2amp(slider1);
  ceiling_amp = db2amp(slider2);

  // Lookahead (base rate)
  lookahead_samples = floor(slider3 * 0.001 * srate);
  lookahead_samples < 1 ? lookahead_samples = 1;

  // Oversampling factor (enum sliders are 0-indexed: 0=1x, 1=2x, 2=4x, 3=8x)
  os_factor = 1;
  slider4 >= 1 ? os_factor *= 2;
  slider4 >= 2 ? os_factor *= 2;
  slider4 >= 3 ? os_factor *= 2;

  // Oversampled lookahead
  lookahead_os = lookahead_samples * os_factor;
  lookahead_os >= 480000 ? lookahead_os = 479999;

  // Inflate
  inflate_amt = slider5 * 0.01;
  inflate_mode = slider6;

  // Sidechain HPF coefficients (at OS rate, unity HF gain)
  omega = 2 * $pi * slider9 / (srate * os_factor + EPS);
  hpf_a = cos(omega) / (1 + sin(omega) + EPS);
  hpf_b = (1 + hpf_a) * 0.5;

  // Envelope follower coefficients (at OS rate)
  os_srate = srate * os_factor;
  att_coeff = 1 - exp(-1 / (slider8 * 0.001 * os_srate + 1));
  fast_coeff = 1 - exp(-1 / (0.015 * os_srate + 1));
  slow_coeff = 1 - exp(-1 / (0.120 * os_srate + 1));

  // HBF is unity-gain at DC (c0 + 2*sum(odd_taps) = 1.0), no compensation needed
  hbf_comp = 1;
  base_rel_os = slider7 * 0.001 * os_srate;
  base_rel_srate = slider7 * 0.001 * srate;

  // Reset HBF states on OS change
  prev_os != slider4 ? (
    i = 0; loop(400, hbf_states[i] = 0; i += 1; );
    prev_os = slider4;
  );

  // Reset delay buffer on lookahead change
  prev_lookahead != slider3 ? (
    i = 0; loop(480000, delay_L[i] = 0; delay_R[i] = 0; gr_delay[i] = 1.0; i += 1; );
    delay_write_pos = 0;
    prev_lookahead = slider3;
  );


// ============================================================================
// @BLOCK
// ============================================================================

@block
  os_mode = slider4;
  fir_delay = os_mode == 1 ? 11 : os_mode == 2 ? 16 : os_mode == 3 ? 19 : 0;
  pdc_delay = lookahead_samples + fir_delay;
  pdc_bot_ch = 0;
  pdc_top_ch = 2;


// ============================================================================
// @SAMPLE
// ============================================================================

@sample
  in_L = spl0;
  in_R = spl1;

  // =========================================================================
  // UPSAMPLING — CORRECT MULTI-RATE CASCADE
  // Each 2x stage operates at its OWN internal rate using nested loops.
  // Stage 1: 2x rate (2 OS samples per input)
  // Stage 2: 4x rate (4 OS samples, only for slider4 >= 2)
  // Stage 3: 8x rate (8 OS samples, only for slider4 >= 3)
  // =========================================================================

  // ── 1x: no oversampling (enum 0-indexed: slider4=0 → 1x) ──
  slider4 < 0.5 ? (
    os_idx = 0;
    cur_L = in_L;
    cur_R = in_R;

    inflate_amt > 0 ? (
      cur_L = inflate(cur_L, inflate_amt, inflate_mode);
      cur_R = inflate(cur_R, inflate_amt, inflate_mode);
    );

    hpf_state_L = hpf_a * hpf_state_L + hpf_b * (cur_L - hpf_prev_L);
    hpf_prev_L = cur_L;
    hpf_state_R = hpf_a * hpf_state_R + hpf_b * (cur_R - hpf_prev_R);
    hpf_prev_R = cur_R;
    cf_env = max(abs(hpf_state_L), abs(hpf_state_R));
    fast_rms = fast_rms + fast_coeff * (cf_env * cf_env - fast_rms);
    slow_rms = slow_rms + slow_coeff * (cf_env * cf_env - slow_rms);
    crest = sqrt(fast_rms + EPS) / (sqrt(slow_rms + EPS) + EPS);

    sc_env = max(abs(cur_L), abs(cur_R));
    inst_gr = 1.0;
    sc_env > thresh_amp ? inst_gr = thresh_amp / (sc_env + EPS) : 0;
    inst_gr < target_gr ? (
      target_gr = inst_gr; hold_timer = lookahead_os;
    ) : (
      hold_timer > 0 ? hold_timer -= 1 : target_gr = inst_gr;
    );
    dyn_rel_base = base_rel_os * min(max(1 / (crest + EPS), 0.5), 3.0);
    rel_coeff = 1 - exp(-1 / (dyn_rel_base + 1));
    target_gr < smooth_gr ? ( smooth_gr = target_gr; ) : ( smooth_gr = smooth_gr + rel_coeff * (target_gr - smooth_gr); );

    delay_L[delay_write_pos] = cur_L;
    delay_R[delay_write_pos] = cur_R;
    gr_delay[delay_write_pos] = smooth_gr;
    read_pos = delay_write_pos - lookahead_os;
    read_pos < 0 ? read_pos += 480000 : 0;
    delayed_L = delay_L[read_pos];
    delayed_R = delay_R[read_pos];
    applied_gr = gr_delay[read_pos];
    delay_write_pos += 1;
    delay_write_pos >= 480000 ? delay_write_pos = 0 : 0;

    out_L = delayed_L * applied_gr;
    out_R = delayed_R * applied_gr;
    makeup = ceiling_amp / (thresh_amp + EPS);
    out_L = out_L * makeup;
    out_R = out_R * makeup;

    spl0 = min(max(out_L, -ceiling_amp), ceiling_amp);
    spl1 = min(max(out_R, -ceiling_amp), ceiling_amp);
  );

  // ── 2x: one 2x stage (enum slider4=1) ──
  slider4 >= 0.5 && slider4 < 1.5 ? (
    i1 = 0;
    loop(2,
      s1_in_L = i1 == 0 ? in_L * 2 : 0;
      s1_in_R = i1 == 0 ? in_R * 2 : 0;
      cur_L = process_hbf(s1_in_L, hbf_states);
      cur_R = process_hbf(s1_in_R, hbf_states + 25);
      os_idx = i1;

      inflate_amt > 0 ? (
        cur_L = inflate(cur_L, inflate_amt, inflate_mode);
        cur_R = inflate(cur_R, inflate_amt, inflate_mode);
      );

      hpf_state_L = hpf_a * hpf_state_L + hpf_b * (cur_L - hpf_prev_L);
      hpf_prev_L = cur_L;
      hpf_state_R = hpf_a * hpf_state_R + hpf_b * (cur_R - hpf_prev_R);
      hpf_prev_R = cur_R;
      cf_env = max(abs(hpf_state_L), abs(hpf_state_R));
      fast_rms = fast_rms + fast_coeff * (cf_env * cf_env - fast_rms);
      slow_rms = slow_rms + slow_coeff * (cf_env * cf_env - slow_rms);
      crest = sqrt(fast_rms + EPS) / (sqrt(slow_rms + EPS) + EPS);

      sc_env = max(abs(cur_L), abs(cur_R));
      inst_gr = 1.0;
      sc_env > thresh_amp ? inst_gr = thresh_amp / (sc_env + EPS) : 0;
      inst_gr < target_gr ? ( target_gr = inst_gr; hold_timer = lookahead_os; )
        : ( hold_timer > 0 ? hold_timer -= 1 : target_gr = inst_gr; );
      dyn_rel_base = base_rel_os * min(max(1 / (crest + EPS), 0.5), 3.0);
      rel_coeff = 1 - exp(-1 / (dyn_rel_base + 1));
      target_gr < smooth_gr ? ( smooth_gr = target_gr; ) : ( smooth_gr = smooth_gr + rel_coeff * (target_gr - smooth_gr); );

      delay_L[delay_write_pos] = cur_L;
      delay_R[delay_write_pos] = cur_R;
      gr_delay[delay_write_pos] = smooth_gr;
      read_pos = delay_write_pos - lookahead_os;
      read_pos < 0 ? read_pos += 480000 : 0;
      delayed_L = delay_L[read_pos];
      delayed_R = delay_R[read_pos];
      applied_gr = gr_delay[read_pos];
      delay_write_pos += 1;
      delay_write_pos >= 480000 ? delay_write_pos = 0 : 0;

      out_L = delayed_L * applied_gr;
      out_R = delayed_R * applied_gr;
      makeup = ceiling_amp / (thresh_amp + EPS);
      out_L = out_L * makeup;
      out_R = out_R * makeup;

      pre_hbf_L = out_L;
      pre_hbf_R = out_R;

      slider4 >= 1 ? (
        out_L = process_hbf(out_L, hbf_states + 250);
        out_R = process_hbf(out_R, hbf_states + 275);
      );

      os_idx == 0 ? (
        spl0 = min(max(pre_hbf_L, -ceiling_amp), ceiling_amp);
        spl1 = min(max(pre_hbf_R, -ceiling_amp), ceiling_amp);
      );

      i1 += 1;
    );
  );

  // ── 4x: two 2x stages (enum slider4=2) ──
  slider4 >= 1.5 && slider4 < 2.5 ? (
    i1 = 0;
    loop(2,
      s1_in_L = i1 == 0 ? in_L * 2 : 0;
      s1_in_R = i1 == 0 ? in_R * 2 : 0;
      s1_out_L = process_hbf(s1_in_L, hbf_states);
      s1_out_R = process_hbf(s1_in_R, hbf_states + 25);
      i2 = 0;
      loop(2,
        s2_in_L = i2 == 0 ? s1_out_L * 2 : 0;
        s2_in_R = i2 == 0 ? s1_out_R * 2 : 0;
        cur_L = process_hbf(s2_in_L, hbf_states + 50);
        cur_R = process_hbf(s2_in_R, hbf_states + 75);
        os_idx = i1 * 2 + i2;

        inflate_amt > 0 ? (
          cur_L = inflate(cur_L, inflate_amt, inflate_mode);
          cur_R = inflate(cur_R, inflate_amt, inflate_mode);
        );

        hpf_state_L = hpf_a * hpf_state_L + hpf_b * (cur_L - hpf_prev_L);
        hpf_prev_L = cur_L;
        hpf_state_R = hpf_a * hpf_state_R + hpf_b * (cur_R - hpf_prev_R);
        hpf_prev_R = cur_R;
        cf_env = max(abs(hpf_state_L), abs(hpf_state_R));
        fast_rms = fast_rms + fast_coeff * (cf_env * cf_env - fast_rms);
        slow_rms = slow_rms + slow_coeff * (cf_env * cf_env - slow_rms);
        crest = sqrt(fast_rms + EPS) / (sqrt(slow_rms + EPS) + EPS);

        sc_env = max(abs(cur_L), abs(cur_R));
        inst_gr = 1.0;
        sc_env > thresh_amp ? inst_gr = thresh_amp / (sc_env + EPS) : 0;
        inst_gr < target_gr ? ( target_gr = inst_gr; hold_timer = lookahead_os; )
          : ( hold_timer > 0 ? hold_timer -= 1 : target_gr = inst_gr; );
        dyn_rel_base = base_rel_os * min(max(1 / (crest + EPS), 0.5), 3.0);
        rel_coeff = 1 - exp(-1 / (dyn_rel_base + 1));
        target_gr < smooth_gr ? ( smooth_gr = target_gr; ) : ( smooth_gr = smooth_gr + rel_coeff * (target_gr - smooth_gr); );

        delay_L[delay_write_pos] = cur_L;
        delay_R[delay_write_pos] = cur_R;
        gr_delay[delay_write_pos] = smooth_gr;
        read_pos = delay_write_pos - lookahead_os;
        read_pos < 0 ? read_pos += 480000 : 0;
        delayed_L = delay_L[read_pos];
        delayed_R = delay_R[read_pos];
        applied_gr = gr_delay[read_pos];
        delay_write_pos += 1;
        delay_write_pos >= 480000 ? delay_write_pos = 0 : 0;

        out_L = delayed_L * applied_gr;
        out_R = delayed_R * applied_gr;
        makeup = ceiling_amp / (thresh_amp + EPS);
        out_L = out_L * makeup;
        out_R = out_R * makeup;

        pre_hbf_L = out_L;
        pre_hbf_R = out_R;

        slider4 >= 2 ? (
          out_L = process_hbf(out_L, hbf_states + 200);
          out_R = process_hbf(out_R, hbf_states + 225);
        );
        slider4 >= 1 ? (
          out_L = process_hbf(out_L, hbf_states + 250);
          out_R = process_hbf(out_R, hbf_states + 275);
        );

        os_idx == 0 ? (
          spl0 = min(max(pre_hbf_L, -ceiling_amp), ceiling_amp);
          spl1 = min(max(pre_hbf_R, -ceiling_amp), ceiling_amp);
        );

        i2 += 1;
      );
      i1 += 1;
    );
  );

  // ── 8x: three 2x stages (enum slider4=3) ──
  slider4 >= 2.5 ? (
    i1 = 0;
    loop(2,
      s1_in_L = i1 == 0 ? in_L * 2 : 0;
      s1_in_R = i1 == 0 ? in_R * 2 : 0;
      s1_out_L = process_hbf(s1_in_L, hbf_states);
      s1_out_R = process_hbf(s1_in_R, hbf_states + 25);
      i2 = 0;
      loop(2,
        s2_in_L = i2 == 0 ? s1_out_L * 2 : 0;
        s2_in_R = i2 == 0 ? s1_out_R * 2 : 0;
        s2_out_L = process_hbf(s2_in_L, hbf_states + 50);
        s2_out_R = process_hbf(s2_in_R, hbf_states + 75);
        i3 = 0;
        loop(2,
          s3_in_L = i3 == 0 ? s2_out_L * 2 : 0;
          s3_in_R = i3 == 0 ? s2_out_R * 2 : 0;
          cur_L = process_hbf(s3_in_L, hbf_states + 100);
          cur_R = process_hbf(s3_in_R, hbf_states + 125);
          os_idx = i1 * 4 + i2 * 2 + i3;

          inflate_amt > 0 ? (
            cur_L = inflate(cur_L, inflate_amt, inflate_mode);
            cur_R = inflate(cur_R, inflate_amt, inflate_mode);
          );

          hpf_state_L = hpf_a * hpf_state_L + hpf_b * (cur_L - hpf_prev_L);
          hpf_prev_L = cur_L;
          hpf_state_R = hpf_a * hpf_state_R + hpf_b * (cur_R - hpf_prev_R);
          hpf_prev_R = cur_R;
          cf_env = max(abs(hpf_state_L), abs(hpf_state_R));
          fast_rms = fast_rms + fast_coeff * (cf_env * cf_env - fast_rms);
          slow_rms = slow_rms + slow_coeff * (cf_env * cf_env - slow_rms);
          crest = sqrt(fast_rms + EPS) / (sqrt(slow_rms + EPS) + EPS);

          sc_env = max(abs(cur_L), abs(cur_R));
          inst_gr = 1.0;
          sc_env > thresh_amp ? inst_gr = thresh_amp / (sc_env + EPS) : 0;
          inst_gr < target_gr ? ( target_gr = inst_gr; hold_timer = lookahead_os; )
            : ( hold_timer > 0 ? hold_timer -= 1 : target_gr = inst_gr; );
          dyn_rel_base = base_rel_os * min(max(1 / (crest + EPS), 0.5), 3.0);
          rel_coeff = 1 - exp(-1 / (dyn_rel_base + 1));
          target_gr < smooth_gr ? ( smooth_gr = target_gr; ) : ( smooth_gr = smooth_gr + rel_coeff * (target_gr - smooth_gr); );

          delay_L[delay_write_pos] = cur_L;
          delay_R[delay_write_pos] = cur_R;
          gr_delay[delay_write_pos] = smooth_gr;
          read_pos = delay_write_pos - lookahead_os;
          read_pos < 0 ? read_pos += 480000 : 0;
          delayed_L = delay_L[read_pos];
          delayed_R = delay_R[read_pos];
          applied_gr = gr_delay[read_pos];
          delay_write_pos += 1;
          delay_write_pos >= 480000 ? delay_write_pos = 0 : 0;

          out_L = delayed_L * applied_gr;
          out_R = delayed_R * applied_gr;
          makeup = ceiling_amp / (thresh_amp + EPS);
          out_L = out_L * makeup;
          out_R = out_R * makeup;

          pre_hbf_L = out_L;
          pre_hbf_R = out_R;

          slider4 >= 3 ? (
            out_L = process_hbf(out_L, hbf_states + 150);
            out_R = process_hbf(out_R, hbf_states + 175);
          );
          slider4 >= 2 ? (
            out_L = process_hbf(out_L, hbf_states + 200);
            out_R = process_hbf(out_R, hbf_states + 225);
          );
          slider4 >= 1 ? (
            out_L = process_hbf(out_L, hbf_states + 250);
            out_R = process_hbf(out_R, hbf_states + 275);
          );

          os_idx == 0 ? (
            spl0 = min(max(pre_hbf_L, -ceiling_amp), ceiling_amp);
            spl1 = min(max(pre_hbf_R, -ceiling_amp), ceiling_amp);
          );

          i3 += 1;
        );
        i2 += 1;
      );
      i1 += 1;
    );
  );

@gfx 600 300
  gfx_r = 1; gfx_g = 1; gfx_b = 1;
  gfx_x = 10; gfx_y = 10;
  gfx_printf("slider4: %.1f  os_factor: %.0f", slider4, os_factor);
  gfx_x = 10; gfx_y = 30;
  // Show which code path executes (0-indexed enum)
  slider4 < 0.5 ? gfx_printf("PATH: 1x") : 0;
  slider4 >= 0.5 && slider4 < 1.5 ? gfx_printf("PATH: 2x") : 0;
  slider4 >= 1.5 && slider4 < 2.5 ? gfx_printf("PATH: 4x") : 0;
  slider4 >= 2.5 ? gfx_printf("PATH: 8x") : 0;
  gfx_x = 10; gfx_y = 50;
  gfx_printf("lookahead_os: %.0f  lookahead_samples: %.0f", lookahead_os, lookahead_samples);
  gfx_x = 10; gfx_y = 70;
  gfx_printf("thresh: %.4f  ceiling: %.4f  makeup: %.4f", thresh_amp, ceiling_amp, ceiling_amp/(thresh_amp+0.000000000001));
  gfx_x = 10; gfx_y = 90;
  gfx_printf("target_gr: %.4f  smooth_gr: %.4f", target_gr, smooth_gr);
  gfx_x = 10; gfx_y = 110;
  gfx_printf("crest: %.3f  hold_timer: %.0f", crest, hold_timer);
  gfx_x = 10; gfx_y = 130;
  gfx_printf("in_L: %.5f  spl0(out): %.5f", in_L, spl0);
  gfx_x = 10; gfx_y = 150;
  gfx_printf("applied_gr: %.4f  delayed_L: %.5f", applied_gr, delayed_L);
  gfx_x = 10; gfx_y = 170;
  gfx_printf("write_pos: %.0f  read_pos: %.0f", delay_write_pos, read_pos);
  gfx_x = 10; gfx_y = 190;
  gfx_printf("inflate_amt: %.2f  inflate_mode: %.0f", inflate_amt, inflate_mode);
  gfx_x = 10; gfx_y = 210;
  gfx_printf("srate: %.0f  os_srate: %.0f", srate, os_srate);
  gfx_x = 10; gfx_y = 230;
  gfx_printf("base_rel_os: %.1f  rel_coeff: %.6f", base_rel_os, rel_coeff);
  gfx_x = 10; gfx_y = 250;
  gfx_printf("att_coeff: %.6f  fast_coeff: %.6f", att_coeff, fast_coeff);
  gfx_x = 10; gfx_y = 270;
  gfx_printf("hpf_a: %.6f  hpf_b: %.6f", hpf_a, hpf_b);
